symbols/web/flip_camera_ios/materialsymbolsrounded/flip_camera_ios_wght100grad200_20px.svg

<svg xmlns="http://www.w3.org/2000/svg" height="20" width="20"><path d="M13.208 10.542q-.104 1.458-.989 2.541-.886 1.084-2.219 1.084-.167 0-.344-.032-.177-.031-.364-.073-.146-.041-.271-.01-.125.031-.167.136-.125.187-.073.343.052.157.261.198.229.083.489.125.261.042.511.042 1.666 0 2.718-1.313 1.052-1.312 1.094-3.041l.688.646q.104.104.239.083.136-.021.261-.125.104-.104.093-.229-.01-.125-.114-.229l-.959-.959q-.229-.229-.479-.229-.25 0-.479.229l-.979.979q-.104.104-.104.23 0 .124.104.229.104.104.229.104t.229-.104Zm-7.062.875-.667-.625q-.146-.125-.281-.104-.136.02-.24.145-.104.105-.093.219.01.115.114.219l.959.958q.229.229.479.229.25 0 .479-.229l.979-.979q.104-.104.104-.229t-.104-.229q-.104-.104-.229-.104t-.229.104l-.605.604q.084-1.458.98-2.531Q8.688 7.792 10 7.792q.188 0 .365.031t.323.073q.145.062.281.031.135-.031.177-.156.125-.188.083-.344-.041-.156-.25-.198-.25-.041-.5-.104t-.521-.063q-1.666 0-2.718 1.313t-1.094 3.042Zm-2.188 5.687q-.791 0-1.333-.542-.542-.541-.542-1.333V6.667q0-.792.542-1.334.542-.541 1.333-.541h2.23l1.124-1.25q.292-.271.657-.438.364-.166.739-.166h2.604q.376 0 .73.166.354.167.646.438l1.145 1.25h2.209q.791 0 1.333.541.542.542.542 1.334v8.562q0 .792-.542 1.333-.542.542-1.333.542Zm12.084-1.208q.291 0 .479-.188.187-.187.187-.479V6.667q0-.292-.187-.479Q16.333 6 16.042 6H3.958q-.291 0-.479.188-.187.187-.187.479v8.562q0 .292.187.479.188.188.479.188ZM10 10.938Z"/></svg>

<svg xmlns="http://www.w3.org/2000/svg" height="20" width="20"><path d="M13.208 10.542Q13.104 12 12.219 13.083Q11.333 14.167 10 14.167Q9.833 14.167 9.656 14.135Q9.479 14.104 9.292 14.062Q9.146 14.021 9.021 14.052Q8.896 14.083 8.854 14.188Q8.729 14.375 8.781 14.531Q8.833 14.688 9.042 14.729Q9.271 14.812 9.531 14.854Q9.792 14.896 10.042 14.896Q11.708 14.896 12.76 13.583Q13.812 12.271 13.854 10.542L14.542 11.188Q14.646 11.292 14.781 11.271Q14.917 11.25 15.042 11.146Q15.146 11.042 15.135 10.917Q15.125 10.792 15.021 10.688L14.062 9.729Q13.833 9.5 13.583 9.5Q13.333 9.5 13.104 9.729L12.125 10.708Q12.021 10.812 12.021 10.938Q12.021 11.062 12.125 11.167Q12.229 11.271 12.354 11.271Q12.479 11.271 12.583 11.167ZM6.146 11.417 5.479 10.792Q5.333 10.667 5.198 10.688Q5.062 10.708 4.958 10.833Q4.854 10.938 4.865 11.052Q4.875 11.167 4.979 11.271L5.938 12.229Q6.167 12.458 6.417 12.458Q6.667 12.458 6.896 12.229L7.875 11.25Q7.979 11.146 7.979 11.021Q7.979 10.896 7.875 10.792Q7.771 10.688 7.646 10.688Q7.521 10.688 7.417 10.792L6.812 11.396Q6.896 9.938 7.792 8.865Q8.688 7.792 10 7.792Q10.188 7.792 10.365 7.823Q10.542 7.854 10.688 7.896Q10.833 7.958 10.969 7.927Q11.104 7.896 11.146 7.771Q11.271 7.583 11.229 7.427Q11.188 7.271 10.979 7.229Q10.729 7.188 10.479 7.125Q10.229 7.062 9.958 7.062Q8.292 7.062 7.24 8.375Q6.188 9.688 6.146 11.417ZM3.958 17.104Q3.167 17.104 2.625 16.562Q2.083 16.021 2.083 15.229V6.667Q2.083 5.875 2.625 5.333Q3.167 4.792 3.958 4.792H6.188L7.312 3.542Q7.604 3.271 7.969 3.104Q8.333 2.938 8.708 2.938H11.312Q11.688 2.938 12.042 3.104Q12.396 3.271 12.688 3.542L13.833 4.792H16.042Q16.833 4.792 17.375 5.333Q17.917 5.875 17.917 6.667V15.229Q17.917 16.021 17.375 16.562Q16.833 17.104 16.042 17.104ZM16.042 15.896Q16.333 15.896 16.521 15.708Q16.708 15.521 16.708 15.229V6.667Q16.708 6.375 16.521 6.188Q16.333 6 16.042 6H3.958Q3.667 6 3.479 6.188Q3.292 6.375 3.292 6.667V15.229Q3.292 15.521 3.479 15.708Q3.667 15.896 3.958 15.896ZM10 10.938Q10 10.938 10 10.938Q10 10.938 10 10.938Q10 10.938 10 10.938Q10 10.938 10 10.938Q10 10.938 10 10.938Q10 10.938 10 10.938Q10 10.938 10 10.938Q10 10.938 10 10.938Z"/></svg>
